!!!!SEGMENT: pl-wnifc--6439-n--001_anonim--mazur-1.krn
!!!cenid: 18xx:3944
!!!COM: Anonim
!!!COM-rismID: pe30004985
!!!CDT:
!!!CNT:
!!!OTL: Mazur 1
!!!PDT: 1827
!!!AGN:
!!!SMS-siglum: PL-Wnifc
!!!SMS-shelfmark: 6439/n
!!!SMS-shelfwork: 001 W
!!!SMS-variant:
!!!SMS-altvar:
!!!NIFC-rismSourceID: 1001011210
!!!NIFC-rismChildID: 1001011212
!!!NIFC-islandoraID: nifc:212734
!!!URL-pdf-islandora: https://repozytorium.nifc.pl/islandora/object/nifc:212734/datastream/PDF/view
!!!URL-scan: https://polish.musicsources.pl/pl/lokalizacje/galeria/druki-muzyczne/16857 @EN{Scan on Polish Music Sources Website} @PL{Skany w portalu Dziedzictwo Muzyki Polskiej w otwartym dostępie}
!!!IIIF:
!!!ONB-nifc: str. 2 (skan 0002)
!!!AIN: 2 piano
!!!key: C
**kern	**kern
*part2	*part1
*staff2	*staff1
*I"Piano	*I"Piano
*I'pf	*I'pf
*Ipiano	*Ipiano
*ICklav	*ICklav
*clefF4	*clefG2
*k[]	*k[]
*C:	*C:
*M3/8	*M3/8
=1	=1
*tremolo	*
8C\L 8E 8G	16.e/LL
.	32g/JJk
8C\ 8E 8G	8cc\L
.	8qdd/
8C\J 8E 8G	16cc\L
.	16b\JJ
=2	=2
8C\L 8E 8G	16cc\LL
.	16g\JJ
8C\ 8E 8G	8ee\L
*	*Xtuplet
!	!LO:TUP:a:problem:klamra łukowa
8C\J 8E 8G	24ee\L
.	24dd\
.	24cc\JJ
=3	=3
8GG\L 8BB 8D 8G	16b\LL
.	16dd\JJ
8GG\ 8BB 8D 8G	8gg\L
.	8qaa/
8GG\J 8BB 8D 8G	16gg\L
.	16ff#X\JJ
=4	=4
8GG\L 8BB 8D 8G	16gg\LL
.	16dd\JJ
8GG\ 8BB 8D 8G	8ffn\L
8GG\J 8BB 8D 8G	16ee\L
.	16dd\JJ
=5!|:	=5!|:
.	8qddd/
8C\L 8E 8G	16ccc\LL
.	16bb\J
8C\ 8E 8G	8ccc\
8C\J 8E 8G	8gg\J
=6	=6
.	8qff/
8C\L 8E 8G	16ee\LL
.	16dd\J
8C\ 8E 8G	8ee\
8C\J 8E 8G	8cc\J
=7	=7
*	*^
8C\L 8E 8G	8.g/L	4.g\
8C\ 8E 8G	.	.
.	16cc/L	.
8C\J 8E 8G	16ee/	.
.	16gg/JJ	.
*	*v	*v
=8	=8
8GG\L 8BB 8D 8G	8ee\L 8gg
8GG\ 8BB 8D 8G	8dd\J 8ff
8GG\J 8BB 8D 8G	16dd\LL
.	16ee\JJ
=9	=9
.	8qgg/
8GG\L 8BB 8D 8G	16dd\LL 16ff
.	16cc\J 16ee
8GG\ 8BB 8D 8G	8dd\J 8ff
8GG\J 8BB 8D 8G	16ddd\LL
.	16ccc\JJ
!!LO:LB:g=original
=10	=10
8GG\L 8BB 8D 8G	16bb\LL
.	16aa\
8GG\ 8BB 8D 8G	16gg\
.	16ff\
8GG\J 8BB 8D 8G	16ee\
.	16dd\JJ
=11	=11
8GG\L 8BB 8D 8G	16cc\LL
.	16b\
8GG\ 8BB 8D 8G	16aa\
.	16gg\
8GG\J 8BB 8D 8G	16ff\
.	16b\JJ
=12	=12
8C\ 8E 8G	(16dd\LL
.	16cc\JJ)
4C\ 4E 4G	4cc\
=13:|!|:	=13:|!|:
8AA\L 8A	8a\L 8cc 8ee
8A\ 8c 8e	8a\ 8cc 8ee 8aa
8E\J 8B 8d	8b\J 8dd 8ee 8aa#X
=14	=14
*	*tuplet
!	!LO:TUP:a:problem:klamra łukowa
8AA\L 8A	24aa\LL
.	24bb\
.	24ccc\JJ
8A\ 8c 8e	8aa\L
8A\J 8c 8e	16ccc\L
.	16aa\JJ
=15	=15
8GG\L 8G	8g\L 8b 8dd
8G\ 8B 8d	8g\ 8dd 8gg
8C\J 8A 8c	8cc\J 8dd 8ff#X
=16	=16
*Xtremolo	*
!	!LO:TUP:a:problem:klamra łukowa
8GG/ 8G	24gg\LL
.	24aa\
.	24bb\JJ
8G\L 8B 8d	8gg\L
!	!LO:TUP:a:problem:klamra łukowa
8G\J 8B 8d	24gg\L
.	24ff#X\
.	24ee\JJ
=17	=17
8DD/ 8D	16.dd\LL
.	32ee\K
8D\L 8A 8c	16ff#X\
.	16gg\
8D\J 8A 8c	16aa\
.	16bb\JJ
=18	=18
!	!LO:TUP:a:problem:klamra łukowa
8GG/ 8G	24ccc\LL
.	24bb\
.	24aa\JJ
8G\L 8B 8d	8gg\L
!	!LO:TUP:a:problem:klamra łukowa
8G\J 8B 8d	24bb\L
.	24aa\
.	24gg\JJ
=19	=19
8DD/ 8D	16ff#X\LL
.	16dd\
8D\L 8A 8c	16cc#X\
.	16dd\
8D\J 8A 8c	16ee\
.	16ff#\JJ
=20	=20
8GG/ 8G	(16aa\LL
.	16gg\JJ)
!	!LO:TX:t=P:problem:(.) ?
4G\ 4B 4d	4gg\
!!LO:LB:g=original
=21:|!	=21:|!
8GG/ 8G	(16aa\LL
.	16gg\
8G\L 8B 8d	16ff#X\
.	16gg\
8G\J 8B 8d	16ffn\
.	16dd\JJ)
=22||	=22||
*tremolo	*
8C\L 8E 8G	16.e\LL 16.cc
.	32ee\JJk
8C\ 8E 8G	8cc\L
!	!LO:TUP:a:problem:klamra łukowa
8C\J 8E 8G	24cc\L
.	24b\
.	24a\JJ
=23	=23
!	!LO:TUP:a:problem:klamra łukowa
8C\L 8E 8G	24g\LL
.	24cc\
.	24ee\JJ
8C\ 8E 8G	8cc'\L
!	!LO:TUP:a:problem:klamra łukowa
8C\J 8E 8G	24cc\L
.	24b\
.	24a\JJ
=24	=24
8C\L 8E 8G	16g\LL
.	16b\
8C\ 8E 8G	16cc\
.	16ee\
8C\J 8E 8G	16aa\
.	16gg\JJ
=25	=25
8GG\L 8BB 8D 8G	16ff#X\LL
.	16gg\JJ
8GG\ 8BB 8D 8G	8dd\L
.	8qff#X/
8GG\J 8BB 8D 8G	8gg\J
=26	=26
.	8qddd/
8C\L 8E 8G	16ccc\LL
.	16bb\J
8C\ 8E 8G	8ccc\
8C\J 8E 8G	8gg\J
=27	=27
.	8qff/
8C\L 8E 8G	16ee\LL
.	16dd\J
8C\ 8E 8G	8ee\
8C\J 8E 8G	8cc\J
=28	=28
8C\L 8E 8G	8.g\L
8C\ 8E 8G	.
.	16cc\L
8C\J 8E 8G	16ee\
.	16gg\JJ
=29	=29
8GG/L 8BB 8D 8G	16ee\LL 16gg
.	16dd\J 16ff
8GG/ 8BB 8D 8G	8dd\
8GG/J 8BB 8D 8G	8ee\J
=30	=30
.	8qgg/
8GG/L 8BB 8D 8G	16dd\LL 16ff
.	16cc\JJ 16ee
8GG/ 8BB 8D 8G	8dd\L 8ff
8GG/J 8BB 8D 8G	16ddd\L
.	16ccc\JJ
=31	=31
8GG/L 8BB 8D 8G	16bb\LL
.	16aa\
8GG/ 8BB 8D 8G	16gg\
.	16ff\
8GG/J 8BB 8D 8G	16ee\
.	16dd\JJ
!!LO:LB:g=original
=32	=32
8GG\L 8BB 8D 8B	16cc\LL
.	16b\
8GG\ 8BB 8D 8B	16aa\
.	16gg\
8GG\J 8BB 8D 8B	16ff\
.	16b\JJ
=33	=33
8C\ 8E 8G	16dd\LL
.	16cc\JJ
4C\ 4E 4G	4cc\
=34!|:	=34!|:
*k[b-]	*k[b-]
*Xtremolo	*Xtuplet
8FF/ 8F	24f/LL
.	24a/
.	24cc/JJ
8F\L 8A 8c	8ff\L
.	8qgg/
8F\J 8A 8c	16ff\L
.	16ee\JJ
=35	=35
8FF/ 8F	16.ff\LL
.	32cc\JJk
8F\L 8A 8c	(8.aa\L
8F\J 8A 8c	.
.	32gg\LL
.	32ff\JJJ)
=36	=36
*	*tuplet
!	!LO:TUP:b:problem:klamra łukowa
8CC/ 8C	24e/LL
.	24g/
.	24cc/JJ
8E\L 8G 8B-	8ee\L
.	8qaa/
8E\J 8G 8B-	16gg\L
.	16ff#X\JJ
=37	=37
8CC/ 8C	16gg\LL
.	16cc\JJ
8E\L 8G 8B-	(8.bb-\L
8E\J 8G 8B-	.
.	32aa\LL
.	32gg\JJJ)
=38	=38
8FF/ 8F	16.f\LL
.	32a\K
8F\L 8A 8c	16cc\
.	16ff\
8F\J 8A 8c	16aa\
.	16ccc\JJ
=39	=39
8BBB-/ 8BB-	16.g\LL
.	32b-\K
8BB-\L 8D 8G	16dd\
.	16gg\
8BB-\J 8D 8G	16bb-\
.	16ddd\JJ
=40	=40
8CC/ 8C	16bbn\LL
.	16ccc\
8C\L 8G 8B-	16ddd\
.	16ccc\
8C\J 8G 8B-	16bb-X\
.	16ee\JJ
=41	=41
8F\ 8A	16gg\LL
.	16ff\JJ
4FF/ 4F	4ff\
=:|!;	=:|!;
*-	*-
!!!RDF**kern: > = above
!!!RDF**kern: < = below
!!!system-decoration: [(s1,s2)]
!!!ENC: Filip Voros
!!!END: 2022-07-28
!!!ENC: Urszula Świątek
!!!END: 2022-08-24
!!!YEC: Copyright 2022 Narodowy Instytut Fryderyka Chopina (https://polishscores.org)
!!!YEM: License CC-BY-4.0 (https://creativecommons.org/licenses/by/4.0)
